X:1
T: The Green Grass
M:3/4
L:1/4
K:A
 E| A c A| B2 c3/4 B/4| A F D| E2C/2-D/2| D F E3/4- D/4| C E D| E F G|\
 A2 E| c2 A3/4 A/4| B c3/2 B/2| A F D| E2 C3/4 C/4| D F3/2 E/2| C E3/2 D/2|\
 E F G| A2||
